!!!SOCIAL_FUNCTION:	songs of the sun dance
!!!PDT:	1918

Specific Region: Dakotas, Minnesota, Montana, Nebraska
!!!REG: Dakotas and Montana
!!!LING_GROUP: Siouan
!!!LANG: Tone
!!!OTL@ENG: Opening Song of the Sun Dance (a)
!!!ONM: No. 19
**kern
*Imale
*clefF4
*k[b-]
*M2/4
*>[A,B,B1,B,B2]
*>norep[A,B,B2]
*>A
*MM144
4g
=1
2f
=2
4f
16g
8.f
=3
12g
12c
12c
4c
=4
[2c
=5
4c]
16d
8.c
=6
8d
8c
4B-
=7
8c
8F
4F
=8
8G
8F
[4F
=9
2F_
=10
4F]
4F
=11
2G-
=12
8G-
8F
4G-
=13
8G-
8F
4F
=14
8F
8D
4D
=||
2.D
=
4F
2F
=15||
*M2/4
8F
8D
4F
=16
8G
8F
4F
=17
2F
=18
8F
8D
4F
*>B
=19!|:
16f
[8.c
4c]
=20
[2c
=21
4c]
16d
8.c
=22
8f
8c
4B-
=23
8c
8F
4F
=24
8G
8F
4F
=25
[2F
=26
4F]
4F
=27
2G-
=28
8G-
8F
4G-
=29
8G-
8F
4F
=30
8F
8D
4D
=31||
*M3/4
2.D
=32
4F
2F
=33||
*M2/4
8G-
8D
4G-
=34
8G
8F
4F
=35
[2F
=36
2F]
=37
[2f
=38||
*M3/4
2f]
16f
8.f
=39||
*M2/4
*MM160
12f
12c
12c
4c
=40
[2c
=41
4c]
16c
8.c
=42
8d
8c
4B-
=43
8c
8F
4F
=44
8G
8F
4F
=45
2F
=46
2G-
=47
4G-
8G-
8F
=48
8G-
8F
4F
=49
8F
8D
4D
=50||
*M3/4
2.D
=51
4F
2F
=52||
*M2/4
8F
8D
4F
=53
8G
8F
4F
*>B1
=54
!! ending 1
2F
=55
8F
8D
4F
*>B2
=56:|!
!! ending 2
8F
8F
4F
==
*-
!!!CNT: Native American -- Sioux
!!!MRD: 1911/07//-1914///
!!!OCL: Frances Densmore
!!!YOR1: Teton Sioux Music, Bulletin 61,
!!!YOR2: Bureau of American Ethnology, Smithsonian Institution
!!!PPR: Government Printing Office
!!!PPP: Washington, D.C.
!!!PDT: 1918///
!!!ENC: Craig Stuart Sapp
!!!END: 2002/03/25/
!!!EEV: 2002/03/31/
!!!AGN: Ceremonial Song/Song of the Sun Dance
!!!MPN@@SIO: Shiya'ka
!!!MPN@ENG: Teal Duck
!!!TXO: Teton Sioux
!!!MLC: Standing Rock Reservation, South Dakota, United States of America
!!!ARL: 45.9/-100.7#
!!!catalog: Catalogue No. 453
!!!PPG: 128
!!!EFL: 19/245
!! ending 1
!! ending 2
!!!VTS: 617427324
